X: 197
T: VARIOUS: Fishy Song [3/2 Hornpipe]
T: Dance ti' Thy Daddy / You Can Have a Fishy
C: C: Trad.; S: Various
C: Set Leaders: Olya, Tania, Anton
Z: Anton Zille ed., Oleg Naumov arr.; Bregolas at The Session
N: https://thesession.org/members/26966/sets/92388
R: 3/2 Hornpipe
M: 3/2
L: 1/4
Q: 1/2=146
K: Dmaj
"D"d d d B A F|"G"e e e d c A|"D"d d d B A F|"G"A d d "A"c d2||
"D"d d d B A F|"Em"e e e d c A|"D"d d d B A F|"G"A d d "A"c d2||
"D"f2 f e f a|"G"e2 e d c A|"D"f2 f e f a|"G"e d d "(A)"c d2|
"D"f2 f e f a|"Em"g2 g e c A|"D"f2 f e f a|"G"A d d "A (D)"c d2||

